X:1035
T:Ere around the Huge Oak.
M:6/8
L:1/8
Q:3/8=80
Z:Jack Campin * www.campin.me.uk * 2009
K:G
B/c/|d>ed cBA|d>ed cBA|BdG AcF|G3- G{c}B{B}G|FDD D(d/c/)(B/A/)|
BGG G(g/=f/)(e/d/)|eAc B>cA|B3 d2d|Hbgd (d/>c/)BA|]
<end>
<start>
